X:82
M:C
L:1/8
Q:1/4=140
K:D
d||A<F d>F B>AF>B|A<F d>F [G/B/][F/A/][E/G/][D/F/] [C3/2E3/2]B/|
d>e (f/d/a/f/) e2 d||e|f3/2g/4f/4) ed c>B ^A2|d>^d e>^e fF [C2E2]|
f3/2g/4f/4 ed c>B ^A2|Ff (e/4f/4g/) f/e/ dc [D2B2]|f3/2g/4f/4 ed c>B ^A2
|
d>^d e>^e fF [C2E2]|[A,2F2] A<G F/A/B/c/ d2|D<d' a<f e<c (d e/4d/4c/4B/4
)||

